mobile/24/svg/folder-add-24.svg

<svg width="24" height="24" viewBox="0 0 24 24" fill="none" xmlns="http://www.w3.org/2000/svg">
<path d="M3.5 4.75C3.08625 4.75 2.75 5.08625 2.75 5.5V17.5C2.75 17.9138 3.08625 18.25 3.5 18.25H14.5V20H3.5C2.11975 20 1 18.8802 1 17.5V5.5C1 4.11975 2.11975 3 3.5 3H8.011C8.6766 3 9.31416 3.26465 9.78374 3.73731L12.0339 6H18.5C19.8802 6 21 7.11975 21 8.5V13.625H19.25V8.5C19.25 8.08625 18.9138 7.75 18.5 7.75H11.67C11.4371 7.75 11.2138 7.65714 11.0496 7.49199L8.54256 4.97099C8.40214 4.82965 8.2114 4.75 8.011 4.75H3.5Z" fill="black"/>
<path d="M19.125 20H16V18.25H19.125V15.125H20.875V18.25H24V20H20.875V23.125H19.125V20Z" fill="black"/>
</svg>

<svg width="24" height="24" fill="none" xmlns="http://www.w3.org/2000/svg"><path d="M3.5 4.75a.75.75 0 0 0-.75.75v12c0 .414.336.75.75.75h11V20h-11A2.5 2.5 0 0 1 1 17.5v-12A2.5 2.5 0 0 1 3.5 3h4.511c.666 0 1.303.265 1.773.737L12.034 6H18.5A2.5 2.5 0 0 1 21 8.5v5.125h-1.75V8.5a.75.75 0 0 0-.75-.75h-6.83a.875.875 0 0 1-.62-.258L8.543 4.971a.748.748 0 0 0-.532-.221H3.5z" fill="#000"/><path d="M19.125 20H16v-1.75h3.125v-3.125h1.75v3.125H24V20h-3.125v3.125h-1.75V20z" fill="#000"/></svg>
